X:7
M:C
L:1/8
Q:1/4=140
K:D
(3 ABc | dAFA GBAG | FAFA GBAG | FDFD GEGE | FDFD E2 (3ABc |!
dAFA GBAG | FAFA GBAG | FAdA fedc | d2d2d2 :|!
|: (cd) | ecAc ecge | fdAd fdaf | ecAc ecgf | edcB A2A2 |!

